X:1
T:Title
%%score { ( 1 3 ) | ( 2 4 ) }
L:1/8
Q:1/4=100
M:4/4
K:Eb
V:1 treble nm="Grand Piano"
V:3 treble 
V:2 bass 
V:4 bass 
V:1
 BB=AB cBGB | B2 A2 A4 | [FA][FA][=EG][FA] [DB][FA][_EG][DF] | G2 B2 B4 | BB=AB cBGB | z4 d4 | %6
w: Ira~D.~Sankey * * * * * * *||||||
 ce[Ed][Ec] [EB][Ge][B,EG][CEA] | [B,EG]2 [A,DF]2 [G,E]4 | [Ge]2 [Ge]2 d2 G2 | c>c [Ec][Ec] [EB]4 | %10
w: ||||
 [Ee]2 [Ee]2 [Fd]2 [Gc]2 | B>B =Ac [DB]2 [F_A]2 | GB=AB cBGB | z4 d4 | %14
w: ||||
 ce[Ed][Ec] [EB][Ge][B,EG][CEA] | [B,EG]2 [A,DF]2 [G,E]4 |] %16
w: ||
V:2
 [E,G,E][E,G,E][E,_G,E][E,=G,E] [E,A,E][E,G,E][E,B,E][G,B,E] | [F,B,D]2 [F,B,D]2 [F,B,D]4 | %2
 [B,,B,][B,,B,][B,,B,][B,,B,] [B,,B,][B,,B,][B,,B,][B,,B,] | [E,B,E]2 [F,A,D]2 [G,B,E]4 | %4
 [E,G,E][E,G,E][E,_G,E][E,=G,E] [E,A,E][E,G,E][E,B,E][E,G,E] | z4[K:treble] G2 z2 | %6
 [A,E][A,CE][A,,B,][C,A,] [E,G,][E,B,]E,A,, | B,,2 B,,2 E,4 | %8
 [E,B,]2 [C,C]2[K:treble] [G,=B,G]2 [G,B,F]2 | [A,CE]>[A,E] [A,,A,][A,,A,] [E,G,]4 | %10
 [C,G,]2 [C,G,]2 [D,B,]2 [E,E]2 | [F,DF]>[F,DF] [F,CE][F,=A,E] B,,2 D,2 | %12
 [E,B,E][E,G,E][E,_G,E][E,=G,E] [E,A,E][E,G,E][E,B,E][E,G,E] | z4[K:treble] [G,=B,]4 | %14
 [A,E][A,CE][A,,B,][C,A,] [E,G,][E,B,]E,A,, | B,,2 B,,2 E,4 |] %16
V:3
 x8 | x8 | x8 | x8 | x8 | [Ee]2 [Ge]2 z2 F2 | x8 | x8 | x8 | x8 | x8 | x8 | x8 | %13
 [Ee]2 [Ge]2 z2 F2 | x8 | x8 |] %16
V:4
 x8 | x8 | x8 | x8 | x8 | [C,G,]2 [C,C]2[K:treble] [G,B,]4 | x8 | x8 | x4[K:treble] x4 | x8 | x8 | %11
 z4 B,4 | x8 | [C,G,]2 [C,C]2[K:treble] G2 z2 | x8 | x8 |] %16

